packages/tokens/icons/zombie/size16Px.svg

<svg viewBox="0 0 16 16" fill="none" xmlns="http://www.w3.org/2000/svg" width="1em" height="1em"><path d="M13.5 9.5C13.5 11.0531 12.6719 12.2946 11.5389 13.1662C10.3961 14.0453 9.00107 14.5 8 14.5C7.01525 14.5 5.62603 13.9949 4.47922 13.0246C3.34428 12.0642 2.49999 10.6943 2.49999 9C2.49999 7.55097 2.50029 6.36581 2.57284 5.38728C2.64561 4.40574 2.78849 3.68387 3.04507 3.1457C3.29147 2.62887 3.6509 2.26392 4.21301 2.00506C4.79551 1.73682 5.61153 1.5757 6.77336 1.52116C7.00131 1.51046 7.29184 1.72052 7.47416 2.16586C7.80269 2.96835 8.4548 3.5618 9.23546 3.98676C10.0163 4.41179 10.9572 4.68655 11.9292 4.84117C12.8277 4.98409 13.5 5.68892 13.5 6.49994L13.5 9.5Z" stroke="currentColor"/><path d="M12.5 5C12.5 3.34315 11.1569 2 9.5 2L7.5 2" stroke="currentColor"/><path d="M14 7.74998V8.75002H15V7.74998H14ZM14 8.75002C14 9.02615 13.7761 9.25 13.5 9.25V10.25C14.3284 10.25 15 9.57843 15 8.75002H14ZM13.5 7.25C13.7761 7.25 14 7.47385 14 7.74998H15C15 6.92157 14.3284 6.25 13.5 6.25V7.25Z" fill="currentColor"/><path d="M2.00002 7.74998V8.75002H1.00002L1.00002 7.74998H2.00002ZM2.00002 8.75002C2.00002 9.02615 2.22387 9.25 2.5 9.25V10.25C1.67158 10.25 1.00002 9.57843 1.00002 8.75002H2.00002ZM2.5 7.25C2.22387 7.25 2.00002 7.47385 2.00002 7.74998H1.00002C1.00002 6.92157 1.67158 6.25 2.5 6.25V7.25Z" fill="currentColor"/><path d="M5.49999 11C5.49999 10.1716 6.17156 9.5 6.99999 9.5H8.99999C9.82842 9.5 10.5 10.1716 10.5 11C10.5 11.2761 10.2761 11.5 9.99999 11.5H5.99999C5.72385 11.5 5.49999 11.2761 5.49999 11Z" stroke="currentColor"/><path d="M11 7.12488C11 7.53909 10.6642 7.87488 10.25 7.87488C9.83579 7.87488 9.5 7.53909 9.5 7.12488C9.5 7.07894 9.50398 7.04988 9.50755 7.03311C9.50949 7.03246 9.51161 7.03177 9.51393 7.03105C9.56169 7.01627 9.6424 7.00432 9.77907 7.00005C9.8706 6.99719 9.96244 6.99792 10.0685 6.99877C10.1244 6.99921 10.1842 6.99969 10.25 6.99969C10.3158 6.99969 10.3756 6.99921 10.4315 6.99877C10.5376 6.99792 10.6294 6.99719 10.7209 7.00005C10.8576 7.00432 10.9383 7.01627 10.9861 7.03105C10.9884 7.03177 10.9905 7.03246 10.9925 7.03311C10.996 7.04988 11 7.07894 11 7.12488ZM10.9869 7.0141C10.9869 7.01409 10.9871 7.0144 10.9874 7.01507L10.9869 7.0141ZM9.51263 7.01507C9.51291 7.0144 9.51307 7.01409 9.51308 7.0141C9.51309 7.01411 9.51295 7.01445 9.51263 7.01507Z" stroke="currentColor"/><path d="M4.5 7.5H6.5" stroke="currentColor" stroke-linecap="round"/></svg>

<svg xmlns="http://www.w3.org/2000/svg" fill="none" viewBox="0 0 16 16" width="1em" height="1em"><path stroke="currentColor" d="M13.5 9.5c0 1.553-.828 2.795-1.961 3.666C10.396 14.046 9 14.5 8 14.5c-.985 0-2.374-.505-3.52-1.475C3.343 12.065 2.5 10.695 2.5 9c0-1.449 0-2.634.073-3.613.073-.981.215-1.703.472-2.241.246-.517.606-.882 1.168-1.14.583-.27 1.399-.43 2.56-.485.228-.01.519.2.701.645.329.802.98 1.396 1.761 1.82.781.426 1.722.7 2.694.855.899.143 1.571.848 1.571 1.659v3Z"/><path stroke="currentColor" d="M12.5 5a3 3 0 0 0-3-3h-2"/><path fill="currentColor" d="M14 7.75v1h1v-1h-1Zm0 1a.5.5 0 0 1-.5.5v1a1.5 1.5 0 0 0 1.5-1.5h-1Zm-.5-1.5a.5.5 0 0 1 .5.5h1a1.5 1.5 0 0 0-1.5-1.5v1ZM2 7.75v1H1v-1h1Zm0 1a.5.5 0 0 0 .5.5v1A1.5 1.5 0 0 1 1 8.75h1Zm.5-1.5a.5.5 0 0 0-.5.5H1a1.5 1.5 0 0 1 1.5-1.5v1Z"/><path stroke="currentColor" d="M5.5 11A1.5 1.5 0 0 1 7 9.5h2a1.5 1.5 0 0 1 1.5 1.5.5.5 0 0 1-.5.5H6a.5.5 0 0 1-.5-.5ZM11 7.125a.75.75 0 1 1-1.492-.092A7.389 7.389 0 0 1 10.069 7h.362c.107-.001.198-.002.29.001.137.004.217.016.265.031l.006.002a.457.457 0 0 1 .008.092Zm-.013-.11Zm-1.474 0Z"/><path stroke="currentColor" stroke-linecap="round" d="M4.5 7.5h2"/></svg>
